X: 43643
T: Zelda
R: jig
M: 6/8
K: Aminor
|:e2 A e2 A|fed e2 A|edc B2 d|dcB c2 A|
e2 A e2 A|fed e2 A|edc B2 d|dcB A2 z:|
|:ABc E2 E|ABc F2 F|ABc B2 B|dcB c2 A|
ABc E2 E|ABc F2 F|ABc B2 B|dcB A3:|
|:ABc e2 e|ABc f2 f|edc B2 B|Bcd c2 A|
ABc e2 e|ABc f2 f|edc ABB|BcB A3:|

